!!!!SEGMENT: pl-wtm--r-1461--038_stefani-jozef--wszechstronne-cwiczenia-glosowe-adagio.krn
!!!cenid: 18xx:2214
!!!COM: Stefani, Józef
!!!COM-rismid: pe30024097
!!!CDT: 1800/04/16-1876/03/19
!!!CNT: Polish
!!!GTL: Wszechstronne ćwiczenia głosowe
!!!OTL: Adagio
!!!PDT:
!!!AGN: Secular
!!!SMS-siglum: PL-Wtm
!!!SMS-shelfmark: R 1461
!!!SMS-shelfwork: 038 G
!!!SMS-variant:
!!!SMS-altvar:
!!!NIFC-rismid: 1001120710
!!!URL-scan: http://repozytorium.nifc.pl/skany/pl-wtm-nut--r1461
!!!ONB-nifc: UWAGA: skan 0039, s. 75 – 0040, s. 77
**kern	**kern	**dynam	**kern	**dynam
*part2	*part2	*part2	*part1	*part1
*staff3	*staff2	*	*staff1	*
*I"Fortepian	*I"Fortepian	*	*I"Sopran/Tenor	*
*clefF4	*clefG2	*	*clefG2	*
*k[b-]	*k[b-]	*	*k[b-]	*
*d:	*d:	*	*d:	*
*M3/4	*M3/4	*	*M3/4	*
=1	=1	=1	=1	=1
*all\right	*all\right	*	*all\right	*
*2\right	*2\right	*	*2\right	*
!	!	!	!LO:TX:a:i:t=Adagio.	!
8D 8DD\	8r	.	8a/	.
8rEE	8d 8A< 8F</	.	4dd^<\	.
8D 8DD\	8r	.	.	.
8rEE	8d 8A< 8F</	.	4ff^<\	.
8D 8DD\	8r	.	.	.
8rEE	8d 8A< 8F</	.	8dd\	.
=2	=2	=2	=2	=2
8.EL 8.EE\	8.c#XL 8.A</	.	8.cc#X\L	.
16DJk 16DD\	16dJk 16A</	.	16dd\Jk	.
2C#X 2CC#X\	2e 2A</	.	2ee\	.
=3	=3	=3	=3	=3
8C#X 8CC#X\	8r	.	8a/	.
8rEE	8e 8A</	.	4ee^<\	.
8C# 8CC#\	8r	.	.	.
8rEE	8g 8e 8A</	.	4gg^<\	.
8C# 8CC#\	8r	.	.	.
8rEE	8e 8A</	.	8ee\	.
=4	=4	=4	=4	=4
8.DL 8.DD\	8.fL 8.d 8.A</	.	8.ff\L	.
16EJk 16EE\	16eJk 16c#X 16A</	.	16ee\Jk	.
2F 2FF\	2d 2A</	.	2dd\	.
!!LO:LB:g=original
=5	=5	=5	=5	=5
8F 8FF\	8r	.	8dd\	.
8rGG	8a 8d 8A</	.	4a^</	.
8F 8FF\	8r	.	.	.
8rGG	8a 8d 8A</	.	4dd^<\	.
4F#X 4FF#X\	8r	.	.	.
.	8a 8d 8c/	.	8cc\	.
=6	=6	=6	=6	=6
(>8qGG/	.	.	(<8qcc/	.
8.G\L)	8.b-L 8.g 8.d/	.	8.b-/L)	.
16A\Jk	16aJk 16f#X 16d/	.	16a/Jk	.
2B-\	2g 2d/	.	2g/	.
=7	=7	=7	=7	=7
8E 8EE/	8r	.	8cc\	.
8r	8g 8c/	.	4g/	.
8E 8EE/	8r	.	.	.
8r	8cc 8g 8c/	.	4cc\	.
4E 4EE/	8r	.	.	.
.	8b- 8g 8c/	.	8b-\	.
=8	=8	=8	=8	=8
(>8qFF/	.	.	(<8qb-/	.
8.F\L)	8.aL 8.f 8.c/	.	8.a/L)	.
16G\Jk	16gJk 16e 16c/	.	16g/Jk	.
2A\	2f 2c/	.	2f/	.
!!LO:LB:g=original
=9	=9	=9	=9	=9
8BB-/	8r	.	8g/	.
8r	8g 8d 8B-/	.	4b-^<\	.
8BB-/	8r	.	.	.
8r	8g 8d 8B-/	.	8dd\	.
4BBn/	8r	.	(>16ff\LL	.
.	.	.	16ee\	.
.	.	.	8qgg/	.
.	8f 8d 8A-X/	.	16ff\	.
.	.	.	16dd\JJ)	.
=10	=10	=10	=10	=10
8C/	8r	.	8.cc/L	.
8r	8f 8c 8An/	.	.	.
.	.	.	16a/Jk	.
8C/	8r	.	4f/	.
8r	8f 8c 8A/	.	.	.
8C/	8r	.	8.a/L	.
8r	8e 8c 8A/	.	.	.
.	.	.	16g/Jk	.
=11	=11	=11	=11	=11
8F 8FF\	8r	.	2f/	.
8r	8f 8c 8A/	.	.	.
*rep	*rep	*	*	*
8F 8FF\	8r	.	.	.
8r	8f 8c 8A/	.	.	.
*Xrep	*Xrep	*	*	*
*rep	*rep	*	*	*
8F 8FF\	8r	.	4r	.
8r	8f 8c 8A/	.	.	.
*Xrep	*Xrep	*	*	*
=12	=12	=12	=12	=12
8C#X 8CC#X/	8r	.	8a/	.
8r	8a 8e 8A/	.	4e^</	.
*rep	*	*	*	*
8C# 8CC#/	8r	.	.	.
8r	8a 8e 8A/	.	4ee^<\	.
*Xrep	*	*	*	*
*rep	*	*	*	*
8C# 8CC#/	8r	.	.	.
8r	8g 8e 8A/	.	8gg\	.
*Xrep	*	*	*	*
!!LO:LB:g=original
=13	=13	=13	=13	=13
8.DL 8.DD\	8.fL 8.d 8.A/	.	8.ff\L	.
16EJk 16EE\	16eJk 16c#X 16A/	.	16ee\Jk	.
2F 2FF\	2d 2A/	.	2dd\	.
=14	=14	=14	=14	=14
8G 8GG\	8r	.	8r	.
8r	8g 8d 8B-/	.	4b-^<\	.
*rep	*	*	*	*
8G 8GG\	8r	.	.	.
8r	8b- 8g 8d/	.	4dd^<\	.
*Xrep	*	*	*	*
*rep	*	*	*	*
8G 8GG\	8r	.	.	.
8r	8g 8d 8B-/	.	8b-\	.
*Xrep	*	*	*	*
=15	=15	=15	=15	=15
8.DL 8.DD/	8.aL 8.f 8.d/	.	8.a/L	.
16EJk 16EE/	16gJk 16c#X/	.	16g/Jk	.
2F 2FF/	2f 2d/	.	2f/	.
=16	=16	=16	=16	=16
8G 8GG\	8r	.	(<4.e/	.
8r	8e 8d 8B-/	.	.	.
*rep	*rep	*	*	*
8G 8GG\	8r	.	.	.
8r	8e 8d 8B-/	.	32d#X/LLL	.
.	.	.	32e/	.
.	.	.	32g/	.
.	.	.	32b-/JJJ)	.
*Xrep	*Xrep	*	*	*
*rep	*rep	*	*	*
8G 8GG\	8r	.	8ee\L	.
8r	8e 8d 8B-/	.	8gg'>\J	.
*Xrep	*Xrep	*	*	*
=17	=17	=17	=17	=17
8A 8AA\	8r	.	(<4.f/	.
8rGG	8f 8d 8A</	.	.	.
*	*rep	*	*	*
8AA 8AAA/	8r	.	.	.
8rGG	8f 8d 8A/	.	32e/LLL	.
.	.	.	32f/	.
.	.	.	32a/	.
.	.	.	32cc#X/JJJ	.
*	*Xrep	*	*	*
*	*rep	*	*	*
8AA 8AAA/	8r	.	8dd\L)	.
!	!LO:TX:b:i:t=V&colon; S&colon;	!	!	!
8rGG	8f 8d 8A/	.	8ff'>\J	.
*	*Xrep	*	*	*
!!LO:PB:g=original
=18	=18	=18	=18	=18
8AA 8AAA/	8r	.	4.aa\	.
8r	8g 8c#X 8A/	.	.	.
*rep	*rep	*	*	*
8AA 8AAA/	8r	.	.	.
8r	8g 8c# 8A/	.	8a/	.
.	.	.	(<8qgg/	.
*Xrep	*Xrep	*	*	*
*rep	*rep	*	*	*
8AA 8AAA/	8r	.	8.ff\L)	.
8r	8g 8c# 8A/	.	.	.
.	.	.	16ee\Jk	.
*Xrep	*Xrep	*	*	*
=19	=19	=19	=19	=19
2.D 2.DD/	8r	f	2.dd\	.
.	16fLL 16d 16A/	.	.	.
.	16fJJ 16d 16A/	.	.	.
*	*tremolo	*	*	*
.	8fL 8d 8A/	.	.	.
.	8f 8d 8A/	.	.	.
.	8f 8d 8A/	.	.	.
.	8fJ 8d 8A/	.	.	.
*	*Xtremolo	*	*	*
=20	=20	=20	=20	=20
2.GG 2.GGG/	8r	.	2.b-\	.
.	16eLL 16d 16B-/	.	.	.
.	16eJJ 16d 16B-/	.	.	.
.	8eL 8d 8B-/	.	.	.
.	8eJ 8d 8B-/	.	.	.
.	8b-L 8e 8d/	.	.	.
.	8b-J 8e 8d/	.	.	.
=21	=21	=21	=21	=21
8AA 8AAA/	8a 8g 8e 8c#X/	.	(>8a/	.
8r	8r	.	[>8gg^<\L	.
4r	4r	.	32gg\LL]	.
.	.	.	32ee\	.
.	.	.	32cc#X\	.
.	.	.	32a\JJJ)	.
.	.	.	8ryy	.
!	!	!	!LO:TX:t=P:problem:brak jednej ósemki w takcie	!
4r	4r	.	(<[<8b-/L	.
.	.	.	32b-/LL]	.
.	.	.	32g/	.
.	.	.	32e/	.
.	.	.	32d/JJJ	.
!!LO:LB:g=original
=22	=22	=22	=22	=22
2.r	2.r	.	32c#X/LLL	.
.	.	.	32e/	.
.	.	.	32g/	.
.	.	.	32a/JJ	.
.	.	.	8b-/J)	.
!	!	!	!	!LO:HP:b
.	.	.	(>4..b-/	>
.	.	.	16a/)	]
==23	==23	==23	==23	==23
*k[bnf#c#]	*k[bnf#c#]	*	*k[bnf#c#]	*
*D:	*D:	*	*D:	*
!	!	!LO:DY:rj	!	!
8D 8DD\	8r	f	2d/	.
!	!	!LO:HP:a	!	!
8r	8f# 8d 8A/	>	.	.
8D 8DD\	8r	.	.	.
8r	8f# 8d 8A/	.	.	.
8D 8DD\	8r	.	4r	.
8r	8f# 8d 8A/	]]	.	.
=24	=24	=24	=24	=24
!	!	!	!LO:TX:b:i:t=dolce	!
8D 8DD\	8r	p	2f#/	.
8r	8f# 8d 8A/	.	.	.
8D 8DD\	8r	.	.	.
8r	8f# 8d 8A/	.	.	.
8E 8EE\	8r	.	(<16a/LL	.
.	.	.	16g/	.
8r	8g 8c# 8A/	.	16f#/	.
.	.	.	16g/JJ	.
=25	=25	=25	=25	=25
8F# 8FF#\	8r	.	8b/)	.
8r	8a 8d 8A/	.	8r	.
!	!	!	!	!LO:HP:b
8F# 8FF#\	8r	.	4.a/	<
8r	8a 8d 8A/	.	.	.
8F# 8FF#\	8r	.	.	.
8r	8d 8A/	.	8dd\	[[
!!LO:LB:g=original
=26	=26	=26	=26	=26
8G 8GG\	8r	.	2cc#X\	.
8r	8e 8c#X 8A/	.	.	.
8G 8GG\	8r	.	.	.
8r	8e 8c# 8A/	.	.	.
4F# 4FF#\	8r	.	4ddT\	.
.	8d 8A/	.	.	.
.	.	.	(<16qqcc#/LL	.
.	.	.	16qqdd/JJ)	.
=27	=27	=27	=27	=27
8C# 8CC#/	8r	.	2ee\	.
8r	8e 8A/	.	.	.
8C# 8CC#/	8r	.	.	.
8r	8e 8A/	.	.	.
4C# 4CC#/	8r	.	4a/	.
.	8a 8e 8A/	.	.	.
=28	=28	=28	=28	=28
8AA 8AAA/	8r	.	8gg\	.
!	!	!	!LO:TX:a:t=P:problem:łuk falowany; idzie pod pierwszą grupą i nad trzema kolejnymi grupami	!
8r	8g 8e 8c# 8A/	.	(>8g/L	.
*rep	*	*	*	*
8AA 8AAA/	8r	.	32e/LL	.
.	.	.	32g/	.
.	.	.	32a/	.
.	.	.	32cc#/JJJ	.
8r	8g 8e 8c# 8A/	.	32ee\LLL	.
.	.	.	32a\	.
.	.	.	32cc#\	.
.	.	.	32ee\JJJ	.
*Xrep	*	*	*	*
*rep	*	*	*	*
8AA 8AAA/	8r	.	32gg\LLL	.
.	.	.	32ff#\	.
.	.	.	32ee\	.
.	.	.	32dd\JJJ	.
8r	8g 8e 8c# 8A/	.	32cc#\LLL	.
.	.	.	32b\	.
.	.	.	32a\	.
.	.	.	32g\JJJ)	.
*Xrep	*	*	*	*
!!LO:LB:g=original
=29	=29	=29	=29	=29
8D 8DD/	8r	.	(>32f#\LLL	.
.	.	.	32a\	.
.	.	.	32dd\	.
.	.	.	32ff#\JJJ	.
!	!	!	!	!LO:HP:b
8r	8f# 8d 8A/	.	4dd\)	<
*rep	*rep	*	*	*
8D 8DD/	8r	.	.	.
!	!	!	!	!LO:HP:b
8r	8f# 8d 8A/	.	4dd\	[ >
*Xrep	*Xrep	*	*	*
*rep	*rep	*	*	*
8D 8DD/	8r	.	.	.
8r	8f# 8d 8A/	.	8cc#\	]
*Xrep	*Xrep	*	*	*
=30	=30	=30	=30	=30
8G 8GG\	8r	.	8b\	.
8r	8e 8d 8B/	.	4ee^<\	.
8G 8GG\	8r	.	.	.
8r	8e 8d 8B/	.	4gg^<\	.
8G 8GG^>\	8r	.	.	.
8r	8e 8d 8B-X^>/	.	8b-X\	.
=31	=31	=31	=31	=31
8A 8AA\	8r	.	8a/	.
8r	8f# 8d 8A/	.	4a^</	.
8AA 8AAA/	8r	.	.	.
8r	8f# 8d 8A/	.	(<32b/LLL	.
.	.	.	32a/	.
.	.	.	32g#X/	.
.	.	.	32a/JJJ	.
8AA 8AAA/	8r	.	8.b/L	.
8r	8g 8c# 8A/	.	.	.
.	.	.	16cc#/Jk)	.
!!LO:PB:g=original
=32	=32	=32	=32	=32
4D 4DD/	8r	.	2.dd\	.
.	16f#LL 16d 16A/	.	.	.
.	16f#JJ 16d 16A/	.	.	.
!LO:N:vis=4	!	!	!	!
2r	8f#L 8d 8A/	.	.	.
.	8f#J 8d 8A/	.	.	.
.	8ddL 8f# 8d/	.	.	.
.	8ddJ 8f# 8d/	.	.	.
=33	=33	=33	=33	=33
4BB 4BBB/	8r	.	2ff#\	.
.	16ddLL 16f# 16d/	.	.	.
.	16ddJJ 16f# 16d/	.	.	.
!LO:N:vis=4	!	!	!	!
2r	8ddL 8f# 8d/	.	.	.
.	8ddJ 8f# 8d/	.	.	.
.	8ff#L 8dd 8f#/	.	4f#/	.
.	8ff#J 8dd 8f#/	.	.	.
=34	=34	=34	=34	=34
4GG 4GGG/	8r	.	2g/	.
.	16eLL 16d 16B/	.	.	.
.	16eJJ 16d 16B/	.	.	.
4r	8eL 8d 8B/	.	.	.
.	8eJ 8d 8B/	.	.	.
4GG 4GGG/	8b-XL 8e 8d/	.	4b-X/	.
.	8b-J 8e 8d/	.	.	.
!!LO:LB:g=original
=35	=35	=35	=35	=35
4AA 4AAA/	8r	.	(>16a\LL	.
.	.	.	32bn\L	.
.	.	.	32cc#\JJJ	.
.	16f#LL 16d 16A/	.	32dd\LLL	.
.	.	.	32ee\	.
.	16f#JJ 16d 16A/	.	32ff#\	.
.	.	.	32gg\JJJ	.
4r	8f#L 8d 8A/	.	4aa\)	.
.	8f#J 8d 8A/	.	.	.
.	.	.	(<8qb/	.
4AA 4AAA/	8gL 8e 8A/	.	4cc#t\)	.
.	8gJ 8e 8A/	.	.	.
.	.	.	(<16qqb/LL	.
.	.	.	16qqcc#/JJ)	.
=36	=36	=36	=36	=36
2D 2DD/	8r	.	(>[>2dd\	.
.	16f#LL 16d 16A/	.	.	.
.	16f#JJ 16d 16A/	.	.	.
.	8f#L 8d 8A/	.	.	.
.	8f#J 8d 8A/	.	.	.
4C# 4CC#/	8ddL 8f# 8d/	.	16dd\LL]	.
.	.	.	32ee\L	.
.	.	.	32dd\	.
.	8ddJ 8f# 8d/	.	32cc#\	.
.	.	.	32dd\	.
.	.	.	32ee\	.
.	.	.	32dd\JJJ)	.
=37	=37	=37	=37	=37
2BB 2BBB/	8r	.	(>[>2ff#\	.
.	16ddLL 16f# 16d/	.	.	.
.	16ddJJ 16f# 16d/	.	.	.
.	8ddL 8f# 8d/	.	.	.
.	8ddJ 8f# 8d/	.	.	.
4AA 4AAA/	8ff#L 8dd 8f#/	.	16ff#\LL]	.
.	.	.	32gg\L	.
.	.	.	32ff#\	.
.	8ff#J 8dd 8f#/	.	32ee#X\	.
.	.	.	32ff#\	.
.	.	.	32gg\	.
.	.	.	32ff#\JJJ)	.
!!LO:LB:g=original
=38	=38	=38	=38	=38
2GG 2GGG/	8r	.	2ee\	.
.	16eLL 16d 16B/	.	.	.
.	16eJJ 16d 16B/	.	.	.
.	8eL 8d 8B/	.	.	.
.	8eJ 8d 8B/	.	.	.
4GG 4GGG/	8b-XL 8e 8d/	.	4b-X\	.
.	8b-J 8e 8d/	.	.	.
=39	=39	=39	=39	=39
!	!	!LO:DY:rj	!	!
8AA 8AAA/	8a 8g 8e 8c#/	f	(>32a\LLL	.
.	.	.	32cc#\	.
.	.	.	32b#X\	.
.	.	.	32cc#\	.
8r	8r	.	32dd\	.
.	.	.	32cc#\	.
.	.	.	32b#\	.
.	.	.	32cc#\JJJ	.
4r	4r	.	32a\LLL	.
.	.	.	32ee\	.
.	.	.	32dd#X\	.
.	.	.	32ee\	.
.	.	.	32ff#\	.
.	.	.	32ee\	.
.	.	.	32dd#\	.
.	.	.	32ee\JJJ	.
4r	4r	.	32cc#\LLL	.
.	.	.	32gg\	.
.	.	.	32ff#\	.
.	.	.	32gg\	.
.	.	.	32aa\	.
.	.	.	32gg\	.
.	.	.	32ff#\	.
.	.	.	32gg\JJJ)	.
=40	=40	=40	=40	=40
!	!	!	!	!LO:HP:b
2.r	2.r	.	(>[>8ee\L	<
.	.	.	32ee\LL]	.
.	.	.	32ff#\	.
.	.	.	32ee\	.
.	.	.	32dd#X\JJJ	.
.	.	.	16ee\LL)	.
.	.	.	16ff#'>\	.
.	.	.	16gg'>\	.
.	.	.	16aa'>\JJ	.
.	.	.	(>4bb-X'>\	[
!!LO:LB:g=original
=41	=41	=41	=41	=41
4r	4r	.	4.aa\)	.
4r	4r	.	.	.
.	.	.	(>8a\L	.
4AA 4AAA/	4g 4c# 4A/	.	8.ff#\	.
.	.	.	16ee\Jk	.
=42	=42	=42	=42	=42
2.D 2.AA 2.DD/	(<8f#L 8d/	.	8dd\)	.
.	8a/	.	(>4dd^<\|	.
.	8f# 8d/	.	.	.
.	8a/	.	8ee\L	.
.	8g 8e/	.	8.b\	.
.	8a/J	.	.	.
.	.	.	16cc#\Jk	.
=43	=43	=43	=43	=43
2.D 2.AA 2.DD/	8f#L 8d/)	.	8dd\)	.
.	(<8a/	.	4dd^<\|	.
.	8f# 8d/	.	.	.
.	8a/	.	(>16ff#\LL	.
.	.	.	16ee\JJ	.
.	8g 8e/	.	8.b\L	.
.	8a/J)	.	.	.
.	.	.	16cc#\Jk)	.
=44	=44	=44	=44	=44
!	!	!LO:DY:rj	!	!LO:DY:b
2.D 2.AA 2.DD\	2.f# 2.d 2.A</	p	(4.dd\	p
.	.	.	8f#/	>
.	.	.	8.b/L	.
.	.	.	16a/Jk	.
=45	=45	=45	=45	=45
4D 4AA 4DD\	2f# 2d 2A</	.	[<2.d/)	.
4AA\	.	.	.	.
4FF#\	4a 4d/	.	.	.
=46	=46	=46	=46	=46
4D 4DD\	4dd 4f# 4d/	.	4d/]	.
4r	4r	.	4r	.
4r	4r	.	4r	.
==	==	==	==	==
*-	*-	*-	*-	*-
!!!system-decoration: s1{(s2,s3)}
!!!RDF**kern: | = vertical stroke
!!!RDF**dynam: > = "dim", 'fontstyle="italics"
!!!RDF**kern: > = above
!!!RDF**kern: < = below
!!!EED: Antoni Szymański
!!!EST: 2021-06-04
!!!ENC: Mateusz Solarz
!!!END: 2021-05-19
